X:8
T:Cripple Creek
G:Key: A
M:C
L:1/4
Z:abc-transcription Josh Larios <hades@elsewhere.org>, 2017.02.13
N:There are a ton of melody variations for this tune. This is just one of them.
K:A
[P:A]|: "A"aaec | "D"df"A"e2 | aaed | "E7"cB"A"A2 :| 
[P:B]|: "A"ccBA | cce2 | ccBA | "E7"EF"A"A2 :|

